X:1
T:Title
%%score { ( 1 2 ) | ( 3 4 ) }
L:1/8
M:4/4
K:D
V:1 treble nm="Grand Piano"
V:2 treble 
V:3 bass 
V:4 bass 
V:1
 z4 z2[Q:1/4=100] z E | F2 E2 D2 F[EA] | [Fd]2 [Ec]2 [DB]2 [Dc]d | A2 F2 z E .[B,DF]2 | %4
[M:3/4] [DF]4 E2 |[M:1/4] z E |[M:4/4] F2 E2 D2 F[EA] | [Fd]2 c2 B2 cd | %8
 [A,DA]3 [A,DF] [A,DF]2[K:bass] [G,CE]2 |[M:3/4] [F,D]6 |[M:1/4][K:treble] [DFA]2 | %11
[M:4/4] z4 d2 B2 | A4 z4 | [Fd]2 ^d2 e=d c2 |[M:3/4] [Fd]6 |[M:1/4] [FA]2 |[M:4/4] B3 c edcB | %17
 A4 z4 | [A,DA]3 [DFA] [DGB]2 [EGc]2 |[M:3/4] [DFd]6 |] %20
V:2
 z4 z2 D2 | x8 | x8 | z4 D2 z2 |[M:3/4] A,6 |[M:1/4] D2 |[M:4/4] x8 | x8 | x6[K:bass] x2 | %9
[M:3/4] x6 |[M:1/4][K:treble] x2 |[M:4/4] [Fd]2 [Gc]2 z D z E | z2 CG F2 [EA]2 | x8 |[M:3/4] x6 | %15
[M:1/4] x2 |[M:4/4] x8 | z2 E[A,EG] [A,DF]2 [B,DG]2 | x8 |[M:3/4] x6 |] %20
V:3
 z4 z2 F,G, | [D,A,D]2 [E,A,C]2 [F,A,]2 [D,A,D][C,A,] | z4 z2 [G,B,]2 | %3
 [F,A,D]2 [D,A,D]2 [B,,B,]2 z G |[M:3/4] z2 z2 C2 |[M:1/4] F,G, | %6
[M:4/4] [D,A,D]2 [E,A,C]2 [F,A,]2 [D,A,D][C,A,] | [B,,B,]2 [F,^A,E]2 [G,B,D]2 DD | %8
 F,3 D, A,,2 A,,2 |[M:3/4] D,6 |[M:1/4] D,2 |[M:4/4] [D,A,]2 [E,A,]2 .[F,A,F]2 [B,D]C | %12
 [F,DF]2 [E,A,][E,A,C] [D,A,D]2 [C,A,]2 | [B,,B,]2[K:treble] [A,=CF]2 [G,B,E]2[K:bass] [A,E]2 | %14
[M:3/4] [D,A,]6 |[M:1/4] [D,D]2 |[M:4/4][K:treble] [G,DG]3 [G,DG] [G,B,G]2 [G,B,G]2 | %17
 [A,DF]2[K:bass] [C,A,]C, D,2 B,,2 | F,3 D, G,2 A,,2 |[M:3/4] D,6 |] %20
V:4
 z4 z2 D,2 | x8 | [B,,B,]2 [F,^A,]2 [G,B,]2 z D | z4 z2 G,,2 |[M:3/4] A,,6 |[M:1/4] D,2 | %6
[M:4/4] x8 | z4 z2 [G,B,]2 | x8 |[M:3/4] x6 |[M:1/4] x2 |[M:4/4] z4 z2 G,2 | x8 | %13
 x2[K:treble] x4[K:bass] x2 |[M:3/4] x6 |[M:1/4] x2 |[M:4/4][K:treble] x8 | x2[K:bass] x6 | x8 | %19
[M:3/4] x6 |] %20

